assets/svg/1f1ff-1f1e6.svg

<svg xmlns="http://www.w3.org/2000/svg" viewBox="0 0 64 64" enable-background="new 0 0 64 64"><path fill="#699635" d="M60.899,40C61.604,37.451,62,34.773,62,32c0-2.774-0.401-5.451-1.108-8H31.74L14.823,7.417
		c-4.031,2.822-7.326,6.609-9.569,11.026L19,32L5.254,45.557c2.244,4.418,5.546,8.195,9.578,11.018L31.74,40H60.899z"/><path fill="#3e4347" d="M3.55,22.49C2.55,25.479,2,28.674,2,32c0,3.326,0.55,6.521,1.55,9.51L13.191,32L3.55,22.49z"/><path fill="#428bc1" d="M18.334,58.686C22.435,60.793,27.072,62,32,62c12.328,0,22.897-7.449,27.512-18.08H33.397L18.334,58.686z"/><path fill="#ed4c5c" d="M59.516,20.081C54.903,9.447,44.329,2,32,2c-4.929,0-9.575,1.197-13.677,3.303l15.074,14.777H59.516z"/><path fill="#fff" d="m60.52 22.688c-.291-.89-.634-1.755-1-2.607h-26.12l-15.07-14.778c-.672.345-1.331.707-1.972 1.1-.522.32-1.028.664-1.528 1.014l16.917 16.583h29.15c-.12-.439-.232-.882-.372-1.312"/><path fill="#ffce31" d="m5.254 18.443c-.114.224-.24.44-.349.667-.52 1.091-.969 2.221-1.355 3.379l9.641 9.511-9.641 9.51c.388 1.158.836 2.289 1.356 3.381.108.227.233.443.348.666l13.746-13.557-13.746-13.557"/><path fill="#fff" d="m31.74 40l-16.908 16.574c.348.242.69.492 1.048.721.791.506 1.615.961 2.454 1.391l15.06-14.766h26.11c.438-1.012.844-2.041 1.171-3.107.082-.268.143-.543.217-.813h-29.16"/></svg>

<svg xmlns="http://www.w3.org/2000/svg" width="64" height="64" viewBox="0 0 64 64"><path fill="#699635" d="M60.899 40A29.953 29.953 0 0 0 62 32a29.87 29.87 0 0 0-1.108-8H31.74L14.823 7.417a30.103 30.103 0 0 0-9.569 11.026L19 32 5.254 45.557a30.103 30.103 0 0 0 9.578 11.018L31.74 40h29.159z"/><path fill="#3E4347" d="M3.55 22.49C2.55 25.479 2 28.674 2 32c0 3.326.55 6.521 1.55 9.51L13.191 32 3.55 22.49z"/><path fill="#428BC1" d="M18.334 58.686A29.805 29.805 0 0 0 32 62c12.328 0 22.897-7.449 27.512-18.08H33.397L18.334 58.686z"/><path fill="#ED4C5C" d="M59.516 20.081C54.903 9.447 44.329 2 32 2a29.855 29.855 0 0 0-13.677 3.303L33.397 20.08h26.119z"/><path fill="#FFF" d="M60.519 22.688a30.103 30.103 0 0 0-1.003-2.607H33.397L18.323 5.303c-.672.345-1.331.707-1.972 1.1-.522.32-1.028.664-1.528 1.014L31.74 24h29.151c-.12-.439-.232-.882-.372-1.312z"/><path fill="#FFCE31" d="M5.254 18.443c-.114.224-.24.44-.349.667a29.617 29.617 0 0 0-1.355 3.379L13.191 32 3.55 41.51a30.101 30.101 0 0 0 1.356 3.381c.108.227.233.443.348.666L19 32 5.254 18.443z"/><path fill="#FFF" d="M31.74 40L14.832 56.574c.348.242.69.492 1.048.721.791.506 1.615.961 2.454 1.391L33.397 43.92h26.114a29.921 29.921 0 0 0 1.171-3.107c.082-.268.143-.543.217-.813H31.74z"/></svg>
